icons/themes/default/edit.svg

<svg viewBox="0 0 16 16" fill="none" xmlns="http://www.w3.org/2000/svg">
<path id="Union" fill-rule="evenodd" clip-rule="evenodd" d="M11.6519 2.06987C11.0512 2.04256 10.462 2.24078 9.99995 2.62563C9.98831 2.63532 9.97712 2.64554 9.9664 2.65625L3.4464 9.17625C3.16034 9.46232 2.94056 9.90099 2.7699 10.331C2.59317 10.7763 2.44463 11.2774 2.32568 11.7404C2.20627 12.2052 2.11417 12.6416 2.05198 12.9612C2.02083 13.1212 1.99705 13.2527 1.98098 13.3446C1.97295 13.3905 1.96684 13.4266 1.96269 13.4515L1.95795 13.4802L1.9567 13.488L1.95635 13.4901L1.95625 13.4908L1.95621 13.491C1.9562 13.491 1.95619 13.4911 2.44996 13.5698L1.95619 13.4911C1.93097 13.6493 1.98311 13.8101 2.0964 13.9234C2.2097 14.0367 2.37043 14.0888 2.52865 14.0636L2.44996 13.5698C2.52865 14.0636 2.52872 14.0636 2.52879 14.0636L2.52901 14.0635L2.52965 14.0634L2.53182 14.0631L2.53956 14.0618L2.5683 14.0571C2.59317 14.0529 2.62927 14.0468 2.67521 14.0388C2.76708 14.0227 2.89852 13.9989 3.0586 13.9678C3.37819 13.9056 3.81457 13.8135 4.27937 13.6941C4.74237 13.5751 5.24344 13.4266 5.68877 13.2499C6.11878 13.0792 6.55745 12.8594 6.84351 12.5734L13.3635 6.05336C13.3742 6.04265 13.3844 6.03146 13.3941 6.01981C13.779 5.55779 13.9772 4.96859 13.9499 4.36791C13.9226 3.76722 13.6717 3.19845 13.2465 2.77326C12.8213 2.34807 12.2525 2.09719 11.6519 2.06987ZM3.29423 11.9892C3.20495 12.3368 3.13136 12.6693 3.07497 12.9448C3.35047 12.8884 3.683 12.8148 4.03054 12.7255C4.47254 12.612 4.92898 12.4755 5.31989 12.3204C5.72614 12.1592 6.00247 12.0002 6.1364 11.8663L12.6391 5.36355C12.8555 5.09574 12.9666 4.75777 12.9509 4.41333C12.9349 4.0619 12.7882 3.72913 12.5394 3.48036C12.2906 3.2316 11.9579 3.08482 11.6064 3.06884C11.262 3.05318 10.924 3.16426 10.6562 3.38066L4.15351 9.88336C4.01957 10.0173 3.86061 10.2936 3.69938 10.6999C3.54424 11.0908 3.40778 11.5472 3.29423 11.9892ZM11.4735 12.7163C10.5997 11.8425 9.19106 11.8387 8.32377 12.7189C8.12996 12.9156 8.13231 13.2322 8.32901 13.426C8.52572 13.6198 8.84229 13.6174 9.0361 13.4207C9.50882 12.941 10.2802 12.9372 10.7664 13.4234C11.6416 14.2986 13.0482 14.2986 13.9235 13.4234C14.1188 13.2281 14.1188 12.9115 13.9235 12.7163C13.7282 12.521 13.4116 12.521 13.2164 12.7163C12.7316 13.201 11.9582 13.201 11.4735 12.7163Z" fill="currentColor"/>
</svg>

<svg xmlns="http://www.w3.org/2000/svg" fill="none" viewBox="0 0 16 16">
  <path fill="currentColor" fill-rule="evenodd" d="M11.652 2.07a2.41 2.41 0 0 0-1.686.586l-6.52 6.52c-.286.286-.505.725-.676 1.155-.177.445-.325.946-.444 1.41a21.497 21.497 0 0 0-.363 1.71l-.005.03-.001.007v.003l.493.079-.494-.079a.5.5 0 0 0 .573.573l-.079-.494.079.494h.003l.008-.002.028-.005a20.12 20.12 0 0 0 1.711-.363c.463-.119.964-.267 1.41-.444.43-.17.868-.39 1.155-.677l6.52-6.52.03-.033a2.41 2.41 0 0 0-1.742-3.95Zm-8.358 9.92c-.089.347-.163.68-.219.955.275-.057.608-.13.956-.22.442-.113.898-.25 1.289-.405.406-.16.682-.32.816-.454l6.503-6.502a1.41 1.41 0 0 0-1.983-1.983L4.154 9.883c-.134.134-.293.41-.455.817-.155.39-.291.847-.405 1.29Zm8.18.726a2.214 2.214 0 0 0-3.15.003.5.5 0 1 0 .712.702 1.214 1.214 0 0 1 1.73.002 2.226 2.226 0 0 0 3.158 0 .5.5 0 1 0-.708-.707 1.226 1.226 0 0 1-1.742 0Z" clip-rule="evenodd"/>
</svg>
